static/img/kroki/14649e10e882ea880b863d8ef7991de9.svg

<?xml version="1.0" encoding="us-ascii" standalone="no"?><svg xmlns="http://www.w3.org/2000/svg" xmlns:xlink="http://www.w3.org/1999/xlink" contentStyleType="text/css" height="352px" preserveAspectRatio="none" style="width:495px;height:352px;" version="1.1" viewBox="0 0 495 352" width="495px" zoomAndPan="magnify"><defs/><g><!--class slack_conversation--><g id="elem_slack_conversation"><rect codeLine="22" fill="#3D176E" height="39.7891" id="slack_conversation" rx="2.5" ry="2.5" style="stroke:#000D19;stroke-width:0.5;" width="199" x="7" y="206.58"/><ellipse cx="22" cy="226.4745" fill="#ADD1B2" rx="11" ry="11" style="stroke:#181818;stroke-width:1.0;"/><path d="M24.9688,232.1152 Q24.3906,232.412 23.75,232.5527 Q23.1094,232.7089 22.4063,232.7089 Q19.9063,232.7089 18.5781,231.0683 Q17.2656,229.412 17.2656,226.287 Q17.2656,223.162 18.5781,221.5058 Q19.9063,219.8495 22.4063,219.8495 Q23.1094,219.8495 23.75,220.0058 Q24.4063,220.162 24.9688,220.4589 L24.9688,223.1777 Q24.3438,222.5995 23.75,222.3339 Q23.1563,222.0527 22.5313,222.0527 Q21.1875,222.0527 20.5,223.1308 Q19.8125,224.1933 19.8125,226.287 Q19.8125,228.3808 20.5,229.4589 Q21.1875,230.5214 22.5313,230.5214 Q23.1563,230.5214 23.75,230.2558 Q24.3438,229.9745 24.9688,229.3964 L24.9688,232.1152 Z " fill="#000000"/><text fill="#D9B8FF" font-family="Helvetica" font-size="17" lengthAdjust="spacing" textLength="157" x="41" y="232.3598">slack_conversation</text></g><!--class slack_region--><g id="elem_slack_region"><rect codeLine="24" fill="#3D176E" height="39.7891" id="slack_region" rx="2.5" ry="2.5" style="stroke:#000D19;stroke-width:0.5;" width="145" x="187" y="106.79"/><ellipse cx="202" cy="126.6845" fill="#ADD1B2" rx="11" ry="11" style="stroke:#181818;stroke-width:1.0;"/><path d="M204.9688,132.3252 Q204.3906,132.622 203.75,132.7627 Q203.1094,132.9189 202.4063,132.9189 Q199.9063,132.9189 198.5781,131.2783 Q197.2656,129.622 197.2656,126.497 Q197.2656,123.372 198.5781,121.7158 Q199.9063,120.0595 202.4063,120.0595 Q203.1094,120.0595 203.75,120.2158 Q204.4063,120.372 204.9688,120.6689 L204.9688,123.3877 Q204.3438,122.8095 203.75,122.5439 Q203.1563,122.2627 202.5313,122.2627 Q201.1875,122.2627 200.5,123.3408 Q199.8125,124.4033 199.8125,126.497 Q199.8125,128.5908 200.5,129.6689 Q201.1875,130.7314 202.5313,130.7314 Q203.1563,130.7314 203.75,130.4658 Q204.3438,130.1845 204.9688,129.6064 L204.9688,132.3252 Z " fill="#000000"/><text fill="#D9B8FF" font-family="Helvetica" font-size="17" lengthAdjust="spacing" textLength="103" x="221" y="132.5698">slack_region</text></g><!--class slack_team--><g id="elem_slack_team"><rect codeLine="26" fill="#3D176E" height="39.7891" id="slack_team" rx="2.5" ry="2.5" style="stroke:#000D19;stroke-width:0.5;" width="136" x="191.5" y="7"/><ellipse cx="206.5" cy="26.8945" fill="#ADD1B2" rx="11" ry="11" style="stroke:#181818;stroke-width:1.0;"/><path d="M209.4688,32.5352 Q208.8906,32.832 208.25,32.9727 Q207.6094,33.1289 206.9063,33.1289 Q204.4063,33.1289 203.0781,31.4883 Q201.7656,29.832 201.7656,26.707 Q201.7656,23.582 203.0781,21.9258 Q204.4063,20.2695 206.9063,20.2695 Q207.6094,20.2695 208.25,20.4258 Q208.9063,20.582 209.4688,20.8789 L209.4688,23.5977 Q208.8438,23.0195 208.25,22.7539 Q207.6563,22.4727 207.0313,22.4727 Q205.6875,22.4727 205,23.5508 Q204.3125,24.6133 204.3125,26.707 Q204.3125,28.8008 205,29.8789 Q205.6875,30.9414 207.0313,30.9414 Q207.6563,30.9414 208.25,30.6758 Q208.8438,30.3945 209.4688,29.8164 L209.4688,32.5352 Z " fill="#000000"/><text fill="#D9B8FF" font-family="Helvetica" font-size="17" lengthAdjust="spacing" textLength="94" x="225.5" y="32.7798">slack_team</text></g><!--class slack_user--><g id="elem_slack_user"><rect codeLine="28" fill="#3D176E" height="39.7891" id="slack_user" rx="2.5" ry="2.5" style="stroke:#000D19;stroke-width:0.5;" width="128" x="195.5" y="306.37"/><ellipse cx="210.5" cy="326.2645" fill="#ADD1B2" rx="11" ry="11" style="stroke:#181818;stroke-width:1.0;"/><path d="M213.4688,331.9052 Q212.8906,332.202 212.25,332.3427 Q211.6094,332.4989 210.9063,332.4989 Q208.4063,332.4989 207.0781,330.8583 Q205.7656,329.202 205.7656,326.077 Q205.7656,322.952 207.0781,321.2958 Q208.4063,319.6395 210.9063,319.6395 Q211.6094,319.6395 212.25,319.7958 Q212.9063,319.952 213.4688,320.2489 L213.4688,322.9677 Q212.8438,322.3895 212.25,322.1239 Q211.6563,321.8427 211.0313,321.8427 Q209.6875,321.8427 209,322.9208 Q208.3125,323.9833 208.3125,326.077 Q208.3125,328.1708 209,329.2489 Q209.6875,330.3114 211.0313,330.3114 Q211.6563,330.3114 212.25,330.0458 Q212.8438,329.7645 213.4688,329.1864 L213.4688,331.9052 Z " fill="#000000"/><text fill="#D9B8FF" font-family="Helvetica" font-size="17" lengthAdjust="spacing" textLength="86" x="229.5" y="332.1498">slack_user</text></g><!--class slack_usergroup--><g id="elem_slack_usergroup"><rect codeLine="30" fill="#3D176E" height="39.7891" id="slack_usergroup" rx="2.5" ry="2.5" style="stroke:#000D19;stroke-width:0.5;" width="176" x="312.5" y="206.58"/><ellipse cx="327.5" cy="226.4745" fill="#ADD1B2" rx="11" ry="11" style="stroke:#181818;stroke-width:1.0;"/><path d="M330.4688,232.1152 Q329.8906,232.412 329.25,232.5527 Q328.6094,232.7089 327.9063,232.7089 Q325.4063,232.7089 324.0781,231.0683 Q322.7656,229.412 322.7656,226.287 Q322.7656,223.162 324.0781,221.5058 Q325.4063,219.8495 327.9063,219.8495 Q328.6094,219.8495 329.25,220.0058 Q329.9063,220.162 330.4688,220.4589 L330.4688,223.1777 Q329.8438,222.5995 329.25,222.3339 Q328.6563,222.0527 328.0313,222.0527 Q326.6875,222.0527 326,223.1308 Q325.3125,224.1933 325.3125,226.287 Q325.3125,228.3808 326,229.4589 Q326.6875,230.5214 328.0313,230.5214 Q328.6563,230.5214 329.25,230.2558 Q329.8438,229.9745 330.4688,229.3964 L330.4688,232.1152 Z " fill="#000000"/><text fill="#D9B8FF" font-family="Helvetica" font-size="17" lengthAdjust="spacing" textLength="134" x="346.5" y="232.3598">slack_usergroup</text></g><!--link slack_conversation to slack_user--><g id="link_slack_conversation_slack_user"><path codeLine="32" d="M136.73,246.8 C161.98,262.94 198,285.96 224.5,302.9 " fill="none" id="slack_conversation-to-slack_user" style="stroke:#1A83AF;stroke-width:2.0;"/><polygon fill="#1A83AF" points="228.33,305.99,222.8899,297.7799,224.1135,303.3028,218.5905,304.5264,228.33,305.99" style="stroke:#1A83AF;stroke-width:2.0;"/></g><!--link slack_region to slack_conversation--><g id="link_slack_region_slack_conversation"><path codeLine="33" d="M229.27,147.01 C204.02,163.15 168,186.17 141.5,203.11 " fill="none" id="slack_region-to-slack_conversation" style="stroke:#1A83AF;stroke-width:2.0;"/><polygon fill="#1A83AF" points="137.67,206.2,147.4095,204.7364,141.8865,203.5128,143.1101,197.9899,137.67,206.2" style="stroke:#1A83AF;stroke-width:2.0;"/></g><!--link slack_region to slack_user--><g id="link_slack_region_slack_user"><path codeLine="34" d="M259.5,146.99 C259.5,182.99 259.5,260.34 259.5,300.27 " fill="none" id="slack_region-to-slack_user" style="stroke:#1A83AF;stroke-width:2.0;"/><polygon fill="#1A83AF" points="259.5,304.88,263.5,295.88,259.5,299.88,255.5,295.88,259.5,304.88" style="stroke:#1A83AF;stroke-width:2.0;"/></g><!--link slack_region to slack_usergroup--><g id="link_slack_region_slack_usergroup"><path codeLine="35" d="M287.36,147.01 C310.53,163.08 343.55,185.98 367.94,202.9 " fill="none" id="slack_region-to-slack_usergroup" style="stroke:#1A83AF;stroke-width:2.0;"/><polygon fill="#1A83AF" points="371.7,206.2,366.5893,197.781,367.5932,203.348,362.0261,204.3519,371.7,206.2" style="stroke:#1A83AF;stroke-width:2.0;"/></g><!--link slack_team to slack_region--><g id="link_slack_team_slack_region"><path codeLine="36" d="M259.5,47.22 C259.5,62.49 259.5,83.92 259.5,100.53 " fill="none" id="slack_team-to-slack_region" style="stroke:#1A83AF;stroke-width:2.0;"/><polygon fill="#1A83AF" points="259.5,105.41,263.5,96.41,259.5,100.41,255.5,96.41,259.5,105.41" style="stroke:#1A83AF;stroke-width:2.0;"/></g><!--link slack_usergroup to slack_user--><g id="link_slack_usergroup_slack_user"><path codeLine="37" d="M372.64,246.8 C349.47,262.87 316.45,285.77 292.06,302.69 " fill="none" id="slack_usergroup-to-slack_user" style="stroke:#1A83AF;stroke-width:2.0;"/><polygon fill="#1A83AF" points="288.3,305.99,297.9709,304.1261,292.4022,303.1313,293.397,297.5626,288.3,305.99" style="stroke:#1A83AF;stroke-width:2.0;"/></g><!--SRC=[ZP9TIyCm58Rl-oi2lHwq3krs8zJ1q9iXpZiHoPgJBRHDoidfnXJ_k-sg8qkxpTlpFdq_GZTA08EoeZqheLm1si3cIbSSUSbIHBERcS8W2wNaSfpuujnekWeiU0di4OejaCguJxnkL9Phi9RTED83p_8rcbgBpfwGQzj8eCcXPWMtDYL2jQe9d39Ykff8wPE-QJWMSN87FSoW0Fn5eYWIyTH7haPTt7qabkeJMEm-si8Gz6hs8WxKnPOjuPJi3VtJptPyva8elMQtpksbwuGQyEI-t71XTYqjUM7T64k0O6XVmQot2gOJ8PD1-EaSdBKlnspHo1-PqTlcV-MaZ6PVmVU9YB0UEXCqEVwnjisUeMFRe3ee0ucZjp1E9-Dq_ZwwTxu9Jl878DVaAlmlnsFLm1avm7KEWR_lZECF]--></g></svg>

<svg xmlns="http://www.w3.org/2000/svg" width="495" height="352" preserveAspectRatio="none" style="width:495px;height:352px"><rect width="199" height="39.789" x="7" y="206.58" fill="#3D176E" rx="2.5" ry="2.5" style="stroke:#000d19;stroke-width:.5"/><circle cx="22" cy="226.475" r="11" fill="#ADD1B2" style="stroke:#181818;stroke-width:1"/><path d="M24.969 232.115q-.578.297-1.219.438-.64.156-1.344.156-2.5 0-3.828-1.64-1.312-1.657-1.312-4.782t1.312-4.781q1.328-1.656 3.828-1.656.703 0 1.344.156.656.156 1.219.453v2.719q-.625-.578-1.219-.844-.594-.281-1.219-.281-1.343 0-2.031 1.078-.688 1.062-.688 3.156 0 2.094.688 3.172.688 1.062 2.031 1.062.625 0 1.219-.265.594-.281 1.219-.86v2.72Z"/><text x="41" y="232.36" fill="#D9B8FF" font-family="Helvetica" font-size="17" textLength="157">slack_conversation</text><rect width="145" height="39.789" x="187" y="106.79" fill="#3D176E" rx="2.5" ry="2.5" style="stroke:#000d19;stroke-width:.5"/><circle cx="202" cy="126.684" r="11" fill="#ADD1B2" style="stroke:#181818;stroke-width:1"/><path d="M204.969 132.325q-.578.297-1.219.438-.64.156-1.344.156-2.5 0-3.828-1.64-1.312-1.657-1.312-4.782t1.312-4.781q1.328-1.656 3.828-1.656.703 0 1.344.156.656.156 1.219.453v2.719q-.625-.579-1.219-.844-.594-.281-1.219-.281-1.344 0-2.031 1.078-.688 1.062-.688 3.156 0 2.094.688 3.172.688 1.062 2.031 1.062.625 0 1.219-.265.594-.281 1.219-.86v2.72Z"/><text x="221" y="132.57" fill="#D9B8FF" font-family="Helvetica" font-size="17" textLength="103">slack_region</text><rect width="136" height="39.789" x="191.5" y="7" fill="#3D176E" rx="2.5" ry="2.5" style="stroke:#000d19;stroke-width:.5"/><circle cx="206.5" cy="26.895" r="11" fill="#ADD1B2" style="stroke:#181818;stroke-width:1"/><path d="M209.469 32.535q-.578.297-1.219.438-.64.156-1.344.156-2.5 0-3.828-1.64-1.312-1.657-1.312-4.782t1.312-4.781q1.328-1.656 3.828-1.656.703 0 1.344.156.656.156 1.219.453v2.719q-.625-.578-1.219-.844-.594-.281-1.219-.281-1.344 0-2.031 1.078-.688 1.062-.688 3.156 0 2.094.688 3.172.688 1.062 2.031 1.062.625 0 1.219-.265.594-.281 1.219-.86v2.72Z"/><text x="225.5" y="32.78" fill="#D9B8FF" font-family="Helvetica" font-size="17" textLength="94">slack_team</text><rect width="128" height="39.789" x="195.5" y="306.37" fill="#3D176E" rx="2.5" ry="2.5" style="stroke:#000d19;stroke-width:.5"/><circle cx="210.5" cy="326.264" r="11" fill="#ADD1B2" style="stroke:#181818;stroke-width:1"/><path d="M213.469 331.905q-.578.297-1.219.438-.64.156-1.344.156-2.5 0-3.828-1.64-1.312-1.657-1.312-4.782t1.312-4.781q1.328-1.656 3.828-1.656.703 0 1.344.156.656.156 1.219.453v2.719q-.625-.579-1.219-.844-.594-.281-1.219-.281-1.344 0-2.031 1.078-.688 1.062-.688 3.156 0 2.094.688 3.172.688 1.062 2.031 1.062.625 0 1.219-.265.594-.281 1.219-.86v2.72Z"/><text x="229.5" y="332.15" fill="#D9B8FF" font-family="Helvetica" font-size="17" textLength="86">slack_user</text><rect width="176" height="39.789" x="312.5" y="206.58" fill="#3D176E" rx="2.5" ry="2.5" style="stroke:#000d19;stroke-width:.5"/><circle cx="327.5" cy="226.475" r="11" fill="#ADD1B2" style="stroke:#181818;stroke-width:1"/><path d="M330.469 232.115q-.578.297-1.219.438-.64.156-1.344.156-2.5 0-3.828-1.64-1.312-1.657-1.312-4.782t1.312-4.781q1.328-1.656 3.828-1.656.703 0 1.344.156.656.156 1.219.453v2.719q-.625-.578-1.219-.844-.594-.281-1.219-.281-1.344 0-2.031 1.078-.688 1.062-.688 3.156 0 2.094.688 3.172.688 1.062 2.031 1.062.625 0 1.219-.265.594-.281 1.219-.86v2.72Z"/><text x="346.5" y="232.36" fill="#D9B8FF" font-family="Helvetica" font-size="17" textLength="134">slack_usergroup</text><path fill="none" d="M136.73 246.8c25.25 16.14 61.27 39.16 87.77 56.1" style="stroke:#1a83af;stroke-width:2"/><path fill="#1A83AF" d="m228.33 305.99-5.44-8.21 1.224 5.523-5.524 1.223 9.74 1.464z" style="stroke:#1a83af;stroke-width:2"/><path fill="none" d="M229.27 147.01c-25.25 16.14-61.27 39.16-87.77 56.1" style="stroke:#1a83af;stroke-width:2"/><path fill="#1A83AF" d="m137.67 206.2 9.74-1.464-5.523-1.223 1.223-5.523-5.44 8.21z" style="stroke:#1a83af;stroke-width:2"/><path fill="none" d="M259.5 146.99v153.28" style="stroke:#1a83af;stroke-width:2"/><path fill="#1A83AF" d="m259.5 304.88 4-9-4 4-4-4 4 9z" style="stroke:#1a83af;stroke-width:2"/><path fill="none" d="M287.36 147.01c23.17 16.07 56.19 38.97 80.58 55.89" style="stroke:#1a83af;stroke-width:2"/><path fill="#1A83AF" d="m371.7 206.2-5.11-8.419 1.003 5.567-5.567 1.004 9.674 1.848z" style="stroke:#1a83af;stroke-width:2"/><path fill="none" d="M259.5 47.22v53.31" style="stroke:#1a83af;stroke-width:2"/><path fill="#1A83AF" d="m259.5 105.41 4-9-4 4-4-4 4 9z" style="stroke:#1a83af;stroke-width:2"/><path fill="none" d="M372.64 246.8c-23.17 16.07-56.19 38.97-80.58 55.89" style="stroke:#1a83af;stroke-width:2"/><path fill="#1A83AF" d="m288.3 305.99 9.67-1.864-5.568-.995.995-5.568-5.097 8.427z" style="stroke:#1a83af;stroke-width:2"/></svg>
